X: 3
T: The Maids Of Mitchelstown
R: reel
M: 4/4
L: 1/8
K: Dmin
|:F3D E4|DFED CA,A,2|F3D E2EF|GAGE EDD2:||:C2AD D4|AG^FA G4|ECDB, C4|B,CDE A,DD2:|


Tune 120	Setting 12722

